src/dsmComponents/Icons/car-collision-20px.svg

<?xml version="1.0" encoding="UTF-8"?>
<svg width="20px" height="12px" viewBox="0 0 20 12" version="1.1" xmlns="http://www.w3.org/2000/svg" xmlns:xlink="http://www.w3.org/1999/xlink">
    <!-- Generator: Sketch 59.1 (86144) - https://sketch.com -->
    <title>car-collision-20px</title>
    <desc>Created with Sketch.</desc>
    <defs>
        <path d="M8.9712,8.5196 C8.5882,8.5196 8.2782,8.2066 8.2782,7.8206 C8.2782,7.4346 8.5882,7.1206 8.9712,7.1206 C9.3552,7.1206 9.6652,7.4346 9.6652,7.8206 C9.6652,8.2066 9.3552,8.5196 8.9712,8.5196 M2.5502,8.5196 C2.1672,8.5196 1.8572,8.2066 1.8572,7.8206 C1.8572,7.4346 2.1672,7.1206 2.5502,7.1206 C2.9342,7.1206 3.2442,7.4346 3.2442,7.8206 C3.2442,8.2066 2.9342,8.5196 2.5502,8.5196 M1.8892,5.5856 L2.7482,3.5406 C2.8442,3.3116 3.1302,3.1246 3.3842,3.1246 L8.1382,3.1246 C8.3922,3.1246 8.6782,3.3116 8.7742,3.5406 L9.6332,5.5856 C9.6582,5.6436 9.6672,5.6976 9.6642,5.7476 C9.6622,5.7966 9.6472,5.8416 9.6212,5.8796 C9.5702,5.9556 9.4742,6.0016 9.3472,6.0016 L8.7492,6.0016 L2.1742,6.0016 C1.9212,6.0016 1.7922,5.8146 1.8892,5.5856 M16.4028,9.6827 L18.2308,10.2207 L18.1058,10.6547 C18.0168,10.9627 17.6968,11.1397 17.3918,11.0497 L17.3918,11.0497 L16.6698,10.8377 C16.3648,10.7487 16.1888,10.4257 16.2778,10.1177 L16.2778,10.1177 L16.4028,9.6827 Z M10.9005,10.0236 L10.9005,10.4766 C10.9005,10.7966 10.6435,11.0576 10.3255,11.0576 L10.3255,11.0576 L9.5725,11.0576 C9.2555,11.0576 8.9975,10.7966 8.9975,10.4766 L8.9975,10.4766 L8.9975,10.0236 L10.9005,10.0236 Z M2.5246,10.0236 L2.5246,10.4766 C2.5246,10.7966 2.2666,11.0576 1.9486,11.0576 L1.9486,11.0576 L1.1966,11.0576 C0.8796,11.0576 0.6206,10.7966 0.6206,10.4766 L0.6206,10.4766 L0.6206,10.0236 L2.5246,10.0236 Z M11.6038,1.2529 C11.8678,0.9189 12.4138,0.7439 12.8208,0.8639 L12.8208,0.8639 L17.9248,2.3629 C18.3308,2.4819 18.6988,2.9249 18.7438,3.3499 L18.7438,3.3499 L18.9018,4.8489 L18.9828,5.6189 L19.6478,5.8139 C19.9068,5.8899 20.0558,6.1639 19.9798,6.4249 C19.9048,6.6869 19.6338,6.8369 19.3748,6.7609 L19.3748,6.7609 L19.0758,6.6729 C19.0778,7.0449 19.0258,7.4949 18.9398,7.7949 L18.9398,7.7949 L18.3628,9.7909 L16.5348,9.2539 L16.5348,9.2529 L11.3398,7.7279 L11.3398,7.4979 C11.3398,7.2979 11.3128,7.0489 11.2658,6.7949 C11.6648,6.6899 11.9588,6.3239 11.9588,5.8909 C11.9588,5.3749 11.5428,4.9559 11.0318,4.9559 L11.0318,4.9559 L10.6328,4.9559 L10.4528,4.5129 L9.8838,3.1189 C9.8538,3.0439 9.7998,2.9789 9.7568,2.9089 L9.7568,2.9089 L10.1928,3.0369 L10.6738,2.4299 Z M8.4192,2.5696 C8.7552,2.5696 9.1182,2.7756 9.3362,3.0586 C9.3962,3.1286 9.4462,3.2046 9.4792,3.2866 L9.4792,3.2866 L10.0472,4.6806 L10.3002,5.3026 L10.3392,5.3976 L11.0322,5.3976 C11.3012,5.3976 11.5202,5.6186 11.5202,5.8906 C11.5202,6.1626 11.3012,6.3836 11.0322,6.3836 L11.0322,6.3836 L10.7212,6.3836 C10.7252,6.3976 10.7282,6.4136 10.7322,6.4286 L10.7322,6.4286 C10.7822,6.6026 10.8242,6.7936 10.8532,6.9796 C10.8542,6.9826 10.8542,6.9846 10.8542,6.9866 C10.8832,7.1716 10.9012,7.3506 10.9012,7.4986 L10.9012,7.4986 L10.9012,9.5776 L0.6202,9.5776 L0.6202,7.4986 C0.6202,7.1866 0.6972,6.7406 0.8012,6.3836 L0.8012,6.3836 L0.4892,6.3836 C0.2192,6.3836 0.0002,6.1626 0.0002,5.8906 C0.0002,5.6186 0.2192,5.3976 0.4892,5.3976 L0.4892,5.3976 L1.1832,5.3976 L1.4762,4.6786 L2.0432,3.2866 C2.2032,2.8916 2.6792,2.5696 3.1032,2.5696 L3.1032,2.5696 Z M17.1918,6.8879 C16.8238,6.7799 16.4388,6.9929 16.3318,7.3639 C16.2238,7.7339 16.4358,8.1229 16.8028,8.2309 C17.1718,8.3389 17.5558,8.1259 17.6638,7.7549 C17.7708,7.3839 17.5598,6.9959 17.1918,6.8879 Z M12.9358,1.4759 C12.6928,1.4039 12.3658,1.5029 12.2108,1.6959 L12.2108,1.6959 L10.8178,3.4169 C10.6628,3.6099 10.7338,3.8259 10.9768,3.8979 L10.9768,3.8979 L17.8628,5.9199 C18.1068,5.9909 18.2818,5.8479 18.2538,5.6009 L18.2538,5.6009 L17.9958,3.3949 C17.9668,3.1489 17.7448,2.8879 17.5008,2.8159 L17.5008,2.8159 Z M8.41975,0.286175 L8.4475,0.2943 C8.4665,0.3043 8.4825,0.3233 8.4925,0.3443 L8.4925,0.3443 L8.7745,0.9643 L9.0825,0.7413 C9.0985,0.7303 9.1205,0.7333 9.1425,0.7483 C9.1635,0.7643 9.1815,0.7903 9.1865,0.8153 L9.1865,0.8153 L9.5115,2.4693 C9.5165,2.4913 9.5105,2.5103 9.4975,2.5193 C9.4925,2.5233 9.4865,2.5253 9.4795,2.5263 C9.4555,2.5283 9.4255,2.5083 9.4075,2.4783 L9.4075,2.4783 L8.8655,1.5603 L8.5905,1.7593 C8.5775,1.7683 8.5595,1.7683 8.5405,1.7583 C8.5215,1.7483 8.5055,1.7303 8.4955,1.7093 L8.4955,1.7093 L7.9895,0.6583 C7.9755,0.6283 7.9775,0.5973 7.9955,0.5843 L7.9955,0.5843 L8.3965,0.2923 C8.4095,0.2833 8.4285,0.2843 8.4475,0.2943 Z M10.0356,-0.0001 L10.5276,0.0519 C10.5436,0.0529 10.5566,0.0669 10.5636,0.0869 C10.5706,0.1069 10.5716,0.1319 10.5646,0.1549 L10.5646,0.1549 L10.3676,0.8069 L10.7446,0.8459 C10.7626,0.8479 10.7776,0.8659 10.7836,0.8919 C10.7896,0.9179 10.7846,0.9479 10.7716,0.9699 L10.7716,0.9699 L9.9256,2.4239 C9.9136,2.4439 9.8966,2.4549 9.8816,2.4529 C9.8756,2.4519 9.8696,2.4499 9.8646,2.4459 C9.8446,2.4309 9.8356,2.3959 9.8426,2.3609 L9.8426,2.3609 L10.0426,1.3129 L9.7046,1.2769 C9.6886,1.2759 9.6756,1.2629 9.6686,1.2429 C9.6606,1.2229 9.6606,1.1979 9.6666,1.1759 L9.6666,1.1759 L9.9816,0.0519 C9.9906,0.0189 10.0136,-0.0021 10.0356,-0.0001 L10.0356,-0.0001 Z" id="path-1"></path>
    </defs>
    <g id="Final" stroke="none" stroke-width="1" fill="none" fill-rule="evenodd">
        <g id="All-Nucleo-Icons" transform="translate(-463.000000, -927.000000)">
            <g id="Solo/Nucleo/20px/car-collision" transform="translate(461.000000, 920.000000)">
                <g transform="translate(2.000000, 6.000000)" id="collision">
                    <g>
                        <g id="Group-15" transform="translate(0.000000, 0.698820)">
                            <g id="Colour/Default-Colour" transform="translate(0.000000, 0.301180)">
                                <g>
                                    <mask id="mask-2" fill="white">
                                        <use xlink:href="#path-1"></use>
                                    </mask>
                                    <use id="Mask" fill="#000000" xlink:href="#path-1"></use>
                                    <g id="colour/neutral/chia" mask="url(#mask-2)" fill="#737373">
                                        <g transform="translate(-22.000000, -27.000000)" id="Colour">
                                            <rect x="0" y="0" width="64" height="64"></rect>
                                        </g>
                                    </g>
                                </g>
                            </g>
                        </g>
                    </g>
                </g>
            </g>
        </g>
    </g>
</svg>

<svg width="20" height="12" xmlns="http://www.w3.org/2000/svg" xmlns:xlink="http://www.w3.org/1999/xlink"><defs><path d="M8.971 8.52a.696.696 0 01-.693-.7c0-.385.31-.7.693-.7.384 0 .694.315.694.7 0 .387-.31.7-.694.7m-6.42 0a.696.696 0 01-.694-.7c0-.385.31-.7.693-.7.384 0 .694.315.694.7 0 .387-.31.7-.694.7m-.66-2.934l.858-2.045a.744.744 0 01.636-.416h4.754c.254 0 .54.187.636.416l.86 2.045a.352.352 0 01.03.162.25.25 0 01-.043.132c-.05.076-.147.122-.274.122H2.174c-.253 0-.382-.187-.285-.416m14.514 4.097l1.828.538-.125.434a.575.575 0 01-.714.395l-.722-.212a.582.582 0 01-.392-.72l.125-.435zm-5.502.34v.454c0 .32-.258.58-.575.58h-.754a.579.579 0 01-.574-.58v-.453H10.9zm-8.376 0v.454a.58.58 0 01-.576.58h-.752a.58.58 0 01-.576-.58v-.453h1.904zm9.079-8.77c.264-.334.81-.51 1.217-.39l5.104 1.5c.406.119.774.562.819.987l.158 1.499.08.77.666.195a.493.493 0 01-.273.947l-.3-.088c.003.372-.05.822-.135 1.122l-.577 1.996-1.828-.537v-.001L11.34 7.728v-.23c0-.2-.027-.45-.074-.703a.935.935 0 00.693-.904.932.932 0 00-.927-.935h-.4l-.18-.443-.568-1.394c-.03-.075-.084-.14-.127-.21l.436.128.48-.607zM8.419 2.57c.336 0 .7.206.917.489.06.07.11.146.143.228l.568 1.394.253.622.04.095h.692c.27 0 .488.22.488.493a.491.491 0 01-.488.493h-.31l.01.045a4.6 4.6 0 01.121.55l.001.008c.03.185.047.364.047.512v2.079H.621v-2.08c0-.311.076-.757.18-1.114H.49A.491.491 0 010 5.89c0-.272.22-.493.49-.493h.693l.293-.72.567-1.391c.16-.395.636-.717 1.06-.717zm8.773 4.318a.7.7 0 00-.389 1.343.7.7 0 00.389-1.343zm-4.256-5.412c-.243-.072-.57.027-.725.22l-1.393 1.72c-.155.194-.084.41.159.482l6.886 2.022c.244.07.419-.072.39-.32l-.257-2.205a.751.751 0 00-.495-.58zM8.42.286l.027.008a.11.11 0 01.046.05l.281.62.309-.223c.015-.01.037-.008.06.007a.12.12 0 01.043.067l.325 1.654c.006.022 0 .041-.013.05a.036.036 0 01-.018.007c-.024.002-.055-.018-.072-.048l-.542-.918-.275.2c-.013.008-.031.008-.05-.002a.107.107 0 01-.046-.049L7.99.66c-.014-.03-.013-.062.005-.075l.401-.292c.013-.009.032-.008.051.002zM10.036 0l.492.052c.016 0 .029.015.036.035a.105.105 0 010 .068l-.196.652.377.039c.018.002.033.02.039.046a.11.11 0 01-.012.078l-.846 1.454c-.012.02-.03.03-.044.029a.036.036 0 01-.017-.007c-.02-.015-.03-.05-.022-.085l.2-1.048-.338-.036c-.016-.001-.03-.014-.036-.034a.11.11 0 01-.002-.067L9.982.052c.009-.033.032-.054.054-.052z" id="car-collision-20px_svg__a"/></defs><use fill="#737373" xlink:href="#car-collision-20px_svg__a" fill-rule="evenodd"/></svg>
